X: 91
T: 87. BONAPARTE'S RETREAT
B: Sam Bayard, "Hill Country Tunes" 1987 #87
N: Whistled by F.P. Provance, Point Marion, PA, Sept 19, 1943. Learned from Sam Waggle, fifer, of Dunbar.
R: march
M: 2/4
L: 1/8
Z: 2010 John Chambers <jc:trillian.mit.edu>
P: Rather Slow
K: G
D2 |\
B3 "a."A/B/ | dB AG | AG AB | cB AG | B3 "a."A/B/ | dB AG |
AG AB | G2 G>G | G2 :: d2 | g3 a/b/ | g2 d2 |
g3 a/b/ | g2 G2 | AG AB | G2 G>G | G2 :|
P: Var:
"a."B |]

%%sep 2 1 500
%%sep 1 1 500

